X: 8
T: Old Copperplate, The
Z: Jeff Rowan
S: https://thesession.org/tunes/410#setting46281
R: reel
M: 4/4
L: 1/8
K: Ador
|:(3AAA EA cAEA|aged cA (3AAA|G2DG BGBd|gedc BGGB|
(3AAA EA cAA2|aged c (3AAA|ABcd ef (3gfe|aged cAA2:|
|:ageg (3aaa ab|aged cAA2|gfef (3ggg ga|gedc BGGB|
ageg (3aaa ab|aged cA (3AAA|ABcd ef (3gfe|(3age ed cAA2:|

